icons/svgs/hand-outline.svg

<svg width="24" height="24" viewBox="0 0 24 24" fill="none" xmlns="http://www.w3.org/2000/svg">
<path d="M12 2C12.9766 2 13.8359 2.58594 14.2266 3.40625C14.5 3.32812 14.8125 3.25 15.125 3.25C16.4922 3.25 17.625 4.38281 17.625 5.75V5.82812C17.8203 5.78906 18.0156 5.75 18.25 5.75C19.6172 5.75 20.75 6.88281 20.75 8.25V15.125C20.75 15.2031 20.7109 15.2422 20.7109 15.3203C20.4766 18.9141 17.625 21.7656 14.0312 22C13.9922 22 13.9141 22 13.875 22H13.5625H13.2109C10.5547 22 8.01562 20.9453 6.14062 19.0703L2.70312 15.6719C1.72656 14.6953 1.72656 13.0938 2.70312 12.1172C3.67969 11.1406 5.28125 11.1406 6.25781 12.1172L6.375 12.2344V5.75C6.375 4.38281 7.46875 3.25 8.875 3.25C9.14844 3.25 9.46094 3.32812 9.73438 3.40625C10.125 2.58594 10.9844 2 12 2ZM11.375 5.78906V11.0625C11.375 11.6094 10.9453 12 10.4375 12C9.89062 12 9.5 11.6094 9.5 11.0625V5.75C9.5 5.4375 9.1875 5.125 8.875 5.125C8.52344 5.125 8.25 5.4375 8.25 5.75V14.5C8.25 14.8906 8.01562 15.2031 7.66406 15.3594C7.3125 15.5156 6.88281 15.4375 6.64844 15.1641L4.92969 13.4453C4.69531 13.2109 4.26562 13.2109 4.03125 13.4453C3.79688 13.6797 3.79688 14.1094 4.03125 14.3438L7.46875 17.7812C8.99219 19.3047 11.0625 20.125 13.2109 20.125H13.5625H13.7188C13.7578 20.125 13.7969 20.125 13.7969 20.125C16.5312 20.0078 18.7188 17.8203 18.8359 15.0859C18.8359 15.0859 18.8359 15.0469 18.875 15.0078V8.25C18.875 7.9375 18.5625 7.625 18.25 7.625C17.8984 7.625 17.625 7.9375 17.625 8.25V8.28906V11.0625C17.625 11.6094 17.1953 12 16.6875 12C16.1406 12 15.75 11.6094 15.75 11.0625V7.9375V5.75C15.75 5.4375 15.4375 5.125 15.125 5.125C14.7734 5.125 14.5 5.4375 14.5 5.75V11.0625C14.5 11.6094 14.0703 12 13.5625 12C13.0156 12 12.625 11.6094 12.625 11.0625V5.75V4.5C12.625 4.1875 12.3125 3.875 12 3.875C11.6484 3.875 11.375 4.1875 11.375 4.5V5.75V5.78906Z" fill="black"/>
</svg>

<svg xmlns="http://www.w3.org/2000/svg" width="24" height="24" fill="currentColor" class="icon-hand-outline" viewBox="0 0 24 24">
  <mask id="a" width="20" height="20" x="1" y="2" maskUnits="userSpaceOnUse" style="mask-type:alpha">
    <path d="M12 2c.977 0 1.836.586 2.227 1.406.273-.078.585-.156.898-.156 1.367 0 2.5 1.133 2.5 2.5v.078c.195-.039.39-.078.625-.078 1.367 0 2.5 1.133 2.5 2.5v6.875c0 .078-.04.117-.04.195A7.15 7.15 0 0 1 14.032 22h-.82a10 10 0 0 1-7.07-2.93l-3.438-3.398a2.523 2.523 0 0 1 0-3.555 2.523 2.523 0 0 1 3.555 0l.117.117V5.75c0-1.367 1.094-2.5 2.5-2.5.273 0 .586.078.86.156A2.5 2.5 0 0 1 12 2m-.625 3.79v5.273c0 .546-.43.937-.937.937-.547 0-.938-.39-.938-.937V5.75c0-.312-.312-.625-.625-.625a.64.64 0 0 0-.625.625v8.75c0 .39-.234.703-.586.86-.351.156-.781.078-1.016-.196L4.93 13.445a.66.66 0 0 0-.899 0 .66.66 0 0 0 0 .899L7.47 17.78c1.523 1.524 3.593 2.344 5.742 2.344h.586a5.27 5.27 0 0 0 5.039-5.04s0-.038.039-.077V8.25c0-.312-.312-.625-.625-.625a.64.64 0 0 0-.625.625v2.813c0 .546-.43.937-.937.937-.547 0-.938-.39-.938-.937V5.75c0-.312-.312-.625-.625-.625a.64.64 0 0 0-.625.625v5.313c0 .546-.43.937-.937.937-.547 0-.938-.39-.938-.937V4.5c0-.312-.312-.625-.625-.625a.64.64 0 0 0-.625.625z"/>
  </mask>
  <g mask="url(#a)">
    <path d="M0 0h24v24H0z"/>
  </g>
</svg>
